app/dist/common/images/amc-networks.svg

<svg height="18" width="18" xmlns="http://www.w3.org/2000/svg"><path d="m0 0h18v18h-18z" fill="#11435c"/><path d="m11.988 9c0-1.113.843-2 2.17-2 .894 0 1.423.329 1.811.798l-.773.709c-.088-.123-.351-.52-1.039-.52s-1.155.44-1.155 1.013c0 .572.45 1.005 1.155 1.005.528 0 .776-.207 1.04-.485l.803.591c-.413.497-.874.887-1.843.887-1.25 0-2.169-.858-2.169-1.998zm-6.988.402-.5-1.402-.5 1.402zm-1-2.398h1l2 3.996h-1l-.495-.994h-2l-.505.994h-1zm7-.002h-1l-1 2.498-1-2.498h-1l-.731 1.998.73 1.683.501-1.683.998 1.998h1l1.002-1.998.5 1.998h1z" fill="#f6f8fd"/></svg>

<!-- by TradingView --><svg width="18" height="18" xmlns="http://www.w3.org/2000/svg"><path fill="#11435C" d="M0 0h18v18H0z"/><path d="M11.988 9c0-1.113.843-2 2.17-2 .894 0 1.423.329 1.811.798l-.773.709c-.088-.123-.351-.52-1.039-.52s-1.155.44-1.155 1.013c0 .572.45 1.005 1.155 1.005.528 0 .776-.207 1.04-.485l.803.591c-.413.497-.874.887-1.843.887-1.25 0-2.169-.858-2.169-1.998zM5 9.402L4.5 8 4 9.402h1zM4 7.004h1L7 11H6l-.495-.994h-2L3 11H2l2-3.996zM11 7.002h-1L9 9.5 8 7.002H7L6.269 9l.73 1.683L7.5 9l.998 1.998h1L10.5 9l.5 1.998h1l-1-3.996z" fill="#F6F8FD"/></svg>
